!!!SOCIAL_FUNCTION:	songs of games played in a ceremonial manner
!!!PDT:	1932
!!!OTL: No_9_The_East_God_Gave_Us_this_Dance.krn
!!!REG: Wisconsin
!!!LANG: Non-Tone
!!!LING_GROUP: Algonquin
**kern	**kern
*staff2	*staff1
=1-	=1-
=	=
*clefF4	*clefF4
*k[b-e-]	*k[b-e-]
*M5/8	*M5/8
8GG^/L	8c\L
8GG/	8B-\
8GG^/	8c\
8GG/	8B-\
8GG^/J	8c\J
=2||	=2||
*M2/4	*M2/4
8GG/	4c\
8r	.
4r	4c\
=3	=3
2r	4c\
.	4B-\
=4||	=4||
*M5/8	*M5/8
3...r	8G\L
.	8G\
.	8G\
.	8G\J
.	8r
=5	=5
3...r	8G\L
.	8G\
.	8G\
.	8F\
.	8G\J
=6||	=6||
*M2/4	*M2/4
2r	4G\
.	4G\
=7	=7
2r	(4A\
.	4G\)
=8||	=8||
*M5/8	*M5/8
3...r	8F\L
.	8F\
.	8F\
.	8F\J
.	8r
=9	=9
3...r	8F\L
.	8F\
.	8F\
.	8D\
.	8F\J
=10||	=10||
*M2/4	*M2/4
2r	4F\
.	4F\
=11	=11
2r	(4F\
.	4D\)
=12||	=12||
*M5/8	*M5/8
3...r	8C/L
.	8C/
.	8C/
.	8C/J
.	8r
=13	=13
3...r	8G\L
.	8G\
.	8G\
.	8F\
.	8G\J
=14||	=14||
*M2/4	*M2/4
2r	4G\
.	8G\
.	8r
=15	=15
2r	(4A\
.	4G\)
=16||	=16||
*M5/8	*M5/8
3...r	8F\L
.	8F\
.	8F\
.	8F\J
.	8r
=17	=17
3...r	8F\L
.	8F\
.	8F\
.	8D\
.	8F\J
=18||	=18||
*M2/4	*M2/4
2r	4F\
.	4F\
=19	=19
2r	(4F\
.	4D\)
=20||	=20||
*M5/8	*M5/8
3...r	8C/L
.	8C/
.	8C/
.	8C/J
.	8r
=21	=21
3...r	8C/L
.	8C/
.	8C/
.	8BB-/
.	8C/J
=22||	=22||
*M2/4	*M2/4
2r	4C/
.	4C/
=23	=23
2r	(4C/
.	4BB-/)
=24||	=24||
*M5/8	*M5/8
3...r	8GG/L
.	8GG/
.	8GG/
.	8GG/J
.	8r
=25:|!	=25:|!
3...r	8GG/L
.	8GG/
.	8GG/
.	8FF/
.	8GG/J
=26	=26
*M2/4	*M2/4
2r	4GG/
.	4GG/
=27	=27
2r	4GG/
.	4GG/
=28||	=28||
*M5/8	*M5/8
3...r	8GG/L
.	8GG/
.	8GG/
.	8GG/J
.	8r
==	==
*-	*-
